img/svg/icon_print.svg

<svg width="20" height="20" viewBox="0 0 20 20" fill="none" xmlns="http://www.w3.org/2000/svg">
<path fill-rule="evenodd" clip-rule="evenodd" d="M16 15C16 15.552 15.552 16 15 16H5C4.448 16 4 15.552 4 15C4 14.448 4.448 14 5 14H15C15.552 14 16 14.448 16 15ZM5 10H15C15.552 10 16 10.448 16 11C16 11.552 15.552 12 15 12H5C4.448 12 4 11.552 4 11C4 10.448 4.448 10 5 10ZM18 17C18 17.552 17.552 18 17 18H3C2.448 18 2 17.552 2 17V3C2 2.448 2.448 2 3 2H12V6C12 7.104 12.895 8 14 8H18V17ZM19.707 5.707L14.293 0.293C14.105 0.105 13.851 0 13.586 0H2C0.895 0 0 0.895 0 2V18C0 19.104 0.895 20 2 20H18C19.105 20 20 19.104 20 18V6.414C20 6.149 19.895 5.895 19.707 5.707Z" fill="#A5FF14"/>
</svg>

<svg width="20" height="20" fill="none" xmlns="http://www.w3.org/2000/svg"><path fill-rule="evenodd" clip-rule="evenodd" d="M16 15a1 1 0 01-1 1H5a1 1 0 010-2h10a1 1 0 011 1zM5 10h10a1 1 0 010 2H5a1 1 0 010-2zm13 7a1 1 0 01-1 1H3a1 1 0 01-1-1V3a1 1 0 011-1h9v4a2 2 0 002 2h4v9zm1.707-11.293L14.293.293A1 1 0 0013.586 0H2a2 2 0 00-2 2v16a2 2 0 002 2h16a2 2 0 002-2V6.414a1 1 0 00-.293-.707z" fill="#A5FF14"/></svg>
